packages/ffe-icons/icons/open/300/sm/lan.svg

<svg xmlns="http://www.w3.org/2000/svg" height="20" viewBox="0 -960 960 960" width="20"><path d="M154.001-158.769v-114.462q0-22.008 15.38-37.388 15.38-15.38 37.388-15.38h55.232v-115.693q0-26.623 18.842-45.465 18.842-18.842 45.465-18.842h127.693v-128.002h-55.232q-22.008 0-37.388-15.38-15.38-15.38-15.38-37.388v-114.462q0-22.008 15.406-37.388 15.406-15.38 37.449-15.38h162.639q22.044 0 37.274 15.38t15.23 37.388v114.462q0 22.008-15.38 37.388-15.38 15.38-37.388 15.38h-55.232v128.002h127.693q26.623 0 45.465 18.842 18.842 18.842 18.842 45.465v115.693h55.397q22.143 0 37.373 15.38 15.23 15.38 15.23 37.388v114.462q0 22.008-15.406 37.388-15.406 15.38-37.449 15.38H590.505q-22.044 0-37.274-15.38t-15.23-37.388v-114.462q0-22.008 15.38-37.388 15.38-15.38 37.388-15.38h55.232v-115.693q0-5.385-3.462-8.847-3.462-3.462-8.847-3.462H326.308q-5.385 0-8.847 3.462-3.462 3.462-3.462 8.847v115.693h55.397q22.143 0 37.373 15.38 15.23 15.38 15.23 37.388v114.462q0 22.008-15.406 37.388-15.406 15.38-37.449 15.38H206.505q-22.044 0-37.274-15.38t-15.23-37.388Zm243.998-527.23h164.002v-116.002H397.999v116.002Zm-192 528h164.002v-116.002H205.999v116.002Zm384 0h164.002v-116.002H589.999v116.002ZM480-680.999ZM370.001-274.001Zm219.998 0Z"/></svg>

<svg xmlns="http://www.w3.org/2000/svg" height="20" viewBox="0 -960 960 960" width="20"><path d="M154-158.77v-114.46q0-22.01 15.38-37.39Q184.76-326 206.77-326H262v-115.69q0-26.63 18.84-45.47T326.31-506H454v-128h-55.23q-22.01 0-37.39-15.38Q346-664.76 346-686.77v-114.46q0-22.01 15.41-37.39Q376.81-854 398.86-854H561.5q22.04 0 37.27 15.38Q614-823.24 614-801.23v114.46q0 22.01-15.38 37.39Q583.24-634 561.23-634H506v128h127.69q26.63 0 45.47 18.84T698-441.69V-326h55.4q22.14 0 37.37 15.38Q806-295.24 806-273.23v114.46q0 22.01-15.41 37.39Q775.19-106 753.14-106H590.5q-22.04 0-37.27-15.38Q538-136.76 538-158.77v-114.46q0-22.01 15.38-37.39Q568.76-326 590.77-326H646v-115.69q0-5.39-3.46-8.85t-8.85-3.46H326.31q-5.39 0-8.85 3.46t-3.46 8.85V-326h55.4q22.14 0 37.37 15.38Q422-295.24 422-273.23v114.46q0 22.01-15.41 37.39Q391.19-106 369.14-106H206.5q-22.04 0-37.27-15.38Q154-136.76 154-158.77ZM398-686h164v-116H398v116ZM206-158h164v-116H206v116Zm384 0h164v-116H590v116ZM480-681ZM370-274Zm220 0Z"/></svg>
